X: 2478
T: Ballydesmond, The
R: polka
M: 2/4
K: Dmajor
D2 FA|dc BA|BE EF|GA/G/ FE|
D2 FA|dc BA|Be Bc|d2 d2:|
eB eB|eB B>c|dA dA|dA A2|
eB eB|eB Bc|d/c/B AF|E2 E2:|

